X: 2
T: Never Was Piping So Gay
R: reel
M: 4/4
L: 1/8
K: Gmaj
D | G,2B,D GBdB | cafd cAFA | G2BG DGBG | AF~F2 dFAF |G2BG DGBc | dfed ^cdef | gfgd cBcA | FGAF G2G :||


Tune 648	Setting 648

